icons/mixlock.svg

<svg xmlns="http://www.w3.org/2000/svg" width="16" height="16" fill="none" viewBox="0 0 16 16"><path fill="#909090" fill-opacity=".5" fill-rule="evenodd" d="m2 8 3-5h6l3 5-3 5H5zm3 0 1.5-2.5h3L11 8l-1.5 2.5h-3z" clip-rule="evenodd"/><path fill="#909090" fill-opacity=".55" d="m14 8-3 5H5L2 8h3l1.5 2.5h3L11 8z"/><path fill="#909090" fill-opacity=".9" d="M5 13 2 8h3l1.5 2.5z"/></svg>

<svg width="16" height="16" viewBox="0 0 16 16" fill="none" xmlns="http://www.w3.org/2000/svg">
<path fill-rule="evenodd" clip-rule="evenodd" d="M2 8L5 3H11L14 8L11 13H5L2 8ZM5 8L6.5 5.5L9.5 5.5L11 8L9.5 10.5H6.5L5 8Z" fill="#909090" fill-opacity="0.5"/>
<path d="M14 8L11 13H5L2 8H5L6.5 10.5H9.5L11 8H14Z" fill="#909090" fill-opacity="0.55"/>
<path d="M5 13L2 8H5L6.5 10.5L5 13Z" fill="#909090" fill-opacity="0.9"/>
</svg>
